X:1
T:Mond, LMD
T:Mond, LMD
T:Lowell Mason, 1844
T:Public Domain Courtesy of the Cyber Hymnal™
C:Lowell Mason, 1844
Z:Public Domain
Z:Courtesy of the Cyber Hymnal™
%%score ( 1 2 ) ( 3 4 )
L:1/8
Q:1/4=117
M:none
K:G
V:1 treble 
V:2 treble 
V:3 bass 
V:4 bass 
V:1
 [DG]4 | [DG]3 [DF] [DG]6 [DA]2 [DB]2 [EG]2 | [Fd]6 [DA]2 [DB]2 [EG]2 | [Ec]2 [EA]2 [DG]4 [DF]4 | %4
 [DG]8 :| [DB]4 | [DA]3 [DG] [DF]6 [DF]2 [DG]2 [GB]2 | [FA]6 A2 [GB]2 [G^c]2 | %8
 [Fd]2 [Fd]2 [Ge]4 [E^c]4 | [Fd]6 [DA]2 [GB]2 [DA]2 | [GB]6 [DA]2 [B,G]2 [G,B]2 | %11
 [DA]6 [FA]2 [GB]2 [Gc]2 | [Gd]2 G2 [GB]4 [FA]4 | G8 |] %14
V:2
 x4 | x16 | x12 | x12 | x8 :| x4 | x16 | x6 A2 x4 | x12 | x12 | x12 | x12 | x2 G2 x8 | G8 |] %14
V:3
 [B,,G,]4 | [D,B,]3 [C,A,] [B,,G,]6 [D,F,]2 [G,,G,]2 [G,,E,]2 | %2
 [A,,D,]6 [F,,D,]2 [G,,G,]2 [B,,E,]2 | [A,,C,]2 C,2 [B,,D,]4 [A,,D,]4 | [B,,G,]8 :| [G,,D,]4 | %6
 [C,D,]3 [B,,D,] [A,,D,]6 [A,,C,]2 B,,2 [G,,D,]2 | [D,E,]6 [D,F,]2 [D,G,]2 [G,,E,]2 | %8
 [A,,D,]2 B,,2 [G,,B,,]4 A,,4 | [A,,D,]6 [A,,D,]2 [B,,G,]2 [A,,D,]2 | %10
 [B,,G,]6 [A,,D,]2 [G,,B,,]2 [G,,B,,]2 | [A,,D,]6 D,2 [D,G,]2 E,2 | [B,,D,]2 [B,,E,]2 D,4 [C,D,]4 | %13
 [G,,B,,]8 |] %14
V:4
 x4 | x16 | x12 | x2 C,2 x8 | x8 :| x4 | x12 B,,2 x2 | x12 | x2 B,,2 x2 A,,4 x2 | x12 | x12 | %11
 x6 D,2 E,2 x2 | x4 D,4 x4 | x8 |] %14

